symbols/web/self_improvement/materialsymbolsoutlined/self_improvement_wght100_20px.svg

<svg xmlns="http://www.w3.org/2000/svg" height="20" width="20"><path d="M10 6.958q-.562 0-.948-.385-.385-.385-.385-.948t.385-.948q.386-.385.948-.385.562 0 .948.385.385.385.385.948t-.385.948q-.386.385-.948.385Zm-4.271 8.959q-.437 0-.719-.24-.281-.239-.281-.677 0-.312.177-.531.177-.219.427-.323l3.5-1.375V9.438q-1.541 1.833-2.729 2.541-1.187.709-2.896.938v-.688q1.25-.104 2.344-.698 1.094-.593 2.031-1.656l1.125-1.271q.167-.187.396-.302.229-.114.479-.114h.834q.25 0 .479.114.229.115.396.302l1.125 1.271q.937 1.063 2.041 1.656 1.104.594 2.334.698v.688q-1.709-.229-2.896-.938-1.188-.708-2.729-2.541v3.333l3.5 1.375q.25.104.427.323.177.219.177.531 0 .438-.281.677-.282.24-.719.24H8.354v-.063q0-.479.271-.739.271-.261.75-.261h2.687q.188 0 .303-.114.114-.115.114-.302 0-.188-.114-.303-.115-.114-.303-.114H9.375q-.813 0-1.333.51-.521.511-.521 1.323v.063Z"/></svg>

<svg xmlns="http://www.w3.org/2000/svg" height="20" width="20"><path d="M10 6.958Q9.438 6.958 9.052 6.573Q8.667 6.188 8.667 5.625Q8.667 5.062 9.052 4.677Q9.438 4.292 10 4.292Q10.562 4.292 10.948 4.677Q11.333 5.062 11.333 5.625Q11.333 6.188 10.948 6.573Q10.562 6.958 10 6.958ZM5.729 15.917Q5.292 15.917 5.01 15.677Q4.729 15.438 4.729 15Q4.729 14.688 4.906 14.469Q5.083 14.25 5.333 14.146L8.833 12.771V9.438Q7.292 11.271 6.104 11.979Q4.917 12.688 3.208 12.917V12.229Q4.458 12.125 5.552 11.531Q6.646 10.938 7.583 9.875L8.708 8.604Q8.875 8.417 9.104 8.302Q9.333 8.188 9.583 8.188H10.417Q10.667 8.188 10.896 8.302Q11.125 8.417 11.292 8.604L12.417 9.875Q13.354 10.938 14.458 11.531Q15.562 12.125 16.792 12.229V12.917Q15.083 12.688 13.896 11.979Q12.708 11.271 11.167 9.438V12.771L14.667 14.146Q14.917 14.25 15.094 14.469Q15.271 14.688 15.271 15Q15.271 15.438 14.99 15.677Q14.708 15.917 14.271 15.917H8.354V15.854Q8.354 15.375 8.625 15.115Q8.896 14.854 9.375 14.854H12.062Q12.25 14.854 12.365 14.74Q12.479 14.625 12.479 14.438Q12.479 14.25 12.365 14.135Q12.25 14.021 12.062 14.021H9.375Q8.562 14.021 8.042 14.531Q7.521 15.042 7.521 15.854V15.917Z"/></svg>
